!!!COM: Gustav Mahler
!!!CNT: Deutsch
!!!TXO: Deutsch
!!!OTL: "Des Antonius von Padua Fischpredigt"
!!!LYR: Des Knaben Wunderhorn
!!!OPR: Des Knaben Wunderhorn, Part 2
!!!ENC: O'Neal Douglas
!!!YOR: CD Sheet Music: Late Romantic German Lieder
!!!YOR: CD Sheet Music, LLC, 2001
!!!ODT: 1893/
!!NB: Vocal melody and text encoded.
**kern	**text
*staff1	*staff1
*clefG2	*
*k[b-]	*
*M3/8	*
*MM69	*
8r	.
=1	=1
4.r	.
=2	=2
4.r	.
=3	=3
4.r	.
=4	=4
4.r	.
=5	=5
4.r	.
=6	=6
4.r	.
=7	=7
4.r	.
=8	=8
8r	.
8r	.
{8A	{An-
=9	=9
8d	-to-
8f	-nius
8e	zur
=10	=10
8d	Pre-
8A	-digt
8A	die
=11	=11
8d	Kir-
(16d	-che
16e)	|
(16f	find't
16g)	|
=12	=12
8a	le-
8d	-dig!
8dd	Er
=13	=13
8cc	geht
(16cc	zu
16dd)	|
(16cc	den
16dd)	|
=14	=14
8b-	Flu2s-
(16b-	-sen
16cc)	|
(16b-	und
16cc)	|
=15	=15
8a	pre-
8a	-digt
8e	den
=16	=16
8a	Fi-
8a}	-schen!}
{8e	{Sie
=17	=17
8cc#	schlag'n
8dd	mit
8ee	den
=18	=18
8ee	Schwa2n-
8dd	-zen!
8dd	im
=19	=19
8cc#	Son-
8dd	-nen-
8ee	-schein
=20	=20
8gg	gla2n-
8ff	-zen,
8ff	im
=21	=21
8a	Son-
8cc#	-nen-
8e	-schein,
=22	=22
8a	Son-
8cc#	-nen-
8e	-schein
=23	=23
8a	gla2n-
8cc#	-zen,
8e	sie
=24	=24
8g	gla2n-
8bn	-zen,
8d	sie
=25	=25
8f	gla2n-
8a	-zen
8r	.
=26	=26
8e-	gla2n-
8g}	-zen!}
8r	.
=27	=27
4.r	.
=28	=28
8r	.
8r	.
{8A	{Die
=29	=29
8d	Karp-
8f	-fen
8e	mit
=30	=30
8d	Ro-
8A	-gen
8A	seind
=31	=31
8d	all
(16d	hier-
16e)	|
(16f	-her
16g)	|
=32	=32
8a	zo-
8d	-gen;
8dd	hab'n
=33	=33
8cc	d'Ma2u-
(16cc	-ler
16dd)	|
(16b-	auf-
16cc)	|
=34	=34
(16a	-ris-
16cc)	|
8ff	-sen,
8dd	sich
=35	=35
8cc	Zu-
(16cc	-ho2r'n's
16dd)	|
(16b-	be-
16cc)	|
=36	=36
(16a	-flis-
16cc)	|
8ff}	-sen}
8r	.
=37	=37
4.r	.
=38	=38
4.r	.
=39	=39
4.r	.
=40	=40
4.r	.
=41	=41
4.r	.
=42	=42
8r	.
8r	.
{(16a	{Kein
16b-)	|
=43	=43
(16a	Pre-
16g)	|
8g	-digt
(16g	nie-
16a)	|
=44	=44
(16g	-ma-
16f#)	|
8f#	-len
8r	.
=45	=45
4.r	.
=46	=46
8r	.
8r	.
(16a	den
16b-)	|
=47	=47
(16a	Fi-
16g)	|
8g	-schen
(16g	so
16a)	|
=48	=48
(16g	g'fal-
16f#)	|
8f#}	-len!}
8r	.
=49	=49
4.r	.
=50	=50
4.r	.
=51	=51
4.r	.
=52	=52
4.r	.
=53	=53
4.r	.
=54	=54
4.r	.
=55	=55
4.r	.
=56	=56
4.r	.
=57	=57
4.r	.
=58	=58
4.r	.
=59	=59
4.r	.
=60	=60
4.r	.
=61	=61
4.r	.
=62	=62
4.r	.
=63	=63
8r	.
8r	.
{8A	{Spitz-
=64	=64
8d	-go-
8f	-sche-
8e	-te
=65	=65
8d	Hech-
8A	-te,
8A	die
=66	=66
8d	im-
(16d	-mer-
16e)	|
(16f	-zu
16g)	|
=67	=67
8a	fech-
8f	-ten,
(16a	sind
16bn)	|
=68	=68
8cc	ei-
8a	-lends
8cc	her-
=69	=69
8b-	-schwom-
8g	-men,
8b-	zu
=70	=70
8a	ho2-
8f	-ren
8a	den
=71	=71
8g	From-
8e}	-men!}
{8dd	{Auch
=72	=72
8.cc	je-
16dd	-ne
8b-	Phan-
=73	=73
8a	-ta-
8f	-sten,
8ff	die
=74	=74
8.ee	im-
16ff	-mer-
8dd	-zu
=75	=75
8cc	fa-
8a	-sten:
8ee-	die
=76	=76
8dd	Stock-
8g	-fisch
8ee-	ich
=77	=77
8dd	mei-
8g	-ne,
(16dd	zur
16ee)	|
=78	=78
8ff	Pre-
8ee	-digt
8dd	er-
=79	=79
(16cc#	-schei-
16bn)	|
8a}	-nen!}
8r	.
=80	=80
4.r	.
=81	=81
8r	.
8r	.
{(16a	{Kein
16b-)	|
=82	=82
(16a	Pre-
16g)	|
8g	-digt
(16g	nie-
16a)	|
=83	=83
(16g	-ma-
16f#)	|
8f#	-len
8r	.
=84	=84
4.r	.
=85	=85
8r	.
8r	.
(16cc	den
16dd)	|
=86	=86
(16cc	Stock-
16b-)	|
8b-	-fisch
(16b-	so
16cc)	|
=87	=87
(16b-	g'fal-
16a)	|
8a}	-len!}
8r	.
=88	=88
4.r	.
=89	=89
4.r	.
=90	=90
4.r	.
=91	=91
4.r	.
=92	=92
4.r	.
=93	=93
4.r	.
=94	=94
4.r	.
=95	=95
4.r	.
=96	=96
4.r	.
=97	=97
4.r	.
=98	=98
4.r	.
=99	=99
*k[f#]	*
4.r	.
=100	=100
4.r	.
=101	=101
4.r	.
=102	=102
4.r	.
=103	=103
4.r	.
=104	=104
4.r	.
=105	=105
4.r	.
=106	=106
4.r	.
=107	=107
4.r	.
=108	=108
8r	.
8r	.
{8dd	{Gut
=109	=109
8.b	Aa-
16cc	-le
8a	und
=110	=110
8g	Hau-
8d	-sen,
8ee	die
=111	=111
8.dd	Vor-
16ee	-neh-
8cc	-me
=112	=112
8b	schmau-
8g	-sen,
(16e	die
16f#)	|
=113	=113
8g	selbst
8g	sich
8a	be-
=114	=114
8.b	-que-
16cc	-men,
8dd	die
=115	=115
8b	Pre-
8b	-digt
8a	ver-
=116	=116
(16g	-neh-
16f#)	|
8e}	-men!}
{8e	{Auch
=117	=117
8.cc	Kreb-
16dd	-se,
8b	Schild-
=118	=118
8a	-kro-
8e	-ten,
8ee	sonst
=119	=119
8.dd	lang-
16ee	-sa-
8cc	-me
=120	=120
8b	Bo-
8f#	-ten,
16g	stei-
16a	-gen
=121	=121
8b	ei-
8dd	-lig
(16b	vom
16a)	|
=122	=122
4g	Grund,
8f#	zu
=123	=123
(16e	ho2-
16f#)	|
8g	-ren
(16f#	die-
16e)	-sen
=124	=124
4d}	Mund!}
8r	.
=125	=125
4.r	.
=126	=126
8r	.
8r	.
{(16g	{Kein
16g#)	.
=127	=127
8a	Pre-
(16a	-digt
16b)	|
(16cc	nie-
16ee)	|
=128	=128
8dd	-ma-
8dd	-len
8r	.
=129	=129
4.r	.
=130	=130
8r	.
8r	.
(16ee	den
16dd)	|
=131	=131
8cc	Kreb-
(16cc	-sen
16b)	|
(16a	so-
16g#)	|
=132	=132
8a	-g'fal-
8a}	-len!}
{8dd	{Fisch'
=133	=133
*k[b-]	*
8.cc	gro-
16dd	-sse,
8b-	Fisch'
=134	=134
8a	klei-
8f	-ne!
8ff	Vor-
=135	=135
8.ee	-nehm'
16ff	und
8dd	ge-
=136	=136
8cc	-mei-
8a	-ne,
8ee-	er-
=137	=137
8dd	-he-
8g	-ben
8ee-	die
=138	=138
8dd	Ko2p-
8g	-fe
16cc	wie
16ee-	ver
=139	=139
8cc	sta2nd'-
8bn	-ge
8a	Ge-
=140	=140
(16g#	-scho2p-
16f#)	|
8e}	-fe!}
8r	.
=141	=141
4.r	.
=142	=142
8r	.
8r	.
{(16cc#	{Auf
16dd)	|
=143	=143
(16cc#	Got-
16bn)	|
8b	-tes
(16b	Be-
16cc#)	|
=144	=144
(16bn	-geh-
16a)	|
8a	-ren
8r	.
=145	=145
4.r	.
=146	=146
8r	.
8r	.
(16ee	die
16ff)	|
=147	=147
(16ee	Pre-
16dd)	|
8dd	-digt
(16dd	an-
16ee)	|
=148	=148
(16dd	-ho2-
16cc#)	|
8cc#}	-ren!}
8r	.
=149	=149
4.r	.
=150	=150
4.r	.
=151	=151
4.r	.
=152	=152
4.r	.
=153	=153
4.r	.
=154	=154
4.r	.
=155	=155
4.r	.
=156	=156
4.r	.
=157	=157
4.r	.
=158	=158
4.r	.
=159	=159
4.r	.
=160	=160
8r	.
8r	.
{8A	{Die
=161	=161
8d	Pre-
8f	-digt
8e	ge-
=162	=162
8d	-en-
8A	-det,
8A	ein
=163	=163
8d	Je-
(16d	-der
16e)	|
(16f	sich
16g)	|
=164	=164
8a	wen-
8d}	-det!}
8r	.
=165	=165
4.r	.
=166	=166
4.r	.
=167	=167
4.r	.
=168	=168
8r	.
8r	.
{8A	{Die
=169	=169
8d	Hech-
(16d	-te
16e-)	|
(16f	blei-
16g)	-ben
=170	=170
8a	Die-
8d	-be,
8f	die
=171	=171
8b-	Aa-
(16b-	-le
16cc)	|
(16dd	viel
16ee-)	|
=172	=172
8ff	lie-
8b-	-ben;
(16dd	die
16cc)	|
=173	=173
8b-	Pre-
8g	-digt
(16dd	hat
16cc)	|
=174	=174
8b-	g'fal-
8g	-len,
(16ee	sie
16dd)	|
=175	=175
8cc	blei-
(16cc	-ben
16a)	|
(16g	wie
16b-)	|
=176	=176
8a	Al-
8f}	-len!}
{(16a	{Die
16g)	|
=177	=177
8f	Krebs'
8f	geh'n
8e	zu-
=178	=178
8d	-ru2k-
8d	-ke,
(16ee-	die
16dd)	|
=179	=179
8cc	Stock-
8cc	-fisch'
8b-	bleib'n
=180	=180
8a	dik-
8a	-ke,
(16dd	die
16cc)	|
=181	=181
8b-	Karp-
8gg	-fen
(16dd	viel
16cc)	|
=182	=182
8b-	fres-
8gg	-sen,
(16dd	die
16cc)	|
=183	=183
8b-	Pre-
8dd	-digt
(16cc	ver-
16b-)	|
=184	=184
8a	-ges-
8cc	-sen,
(16b-	ver-
16a)	|
=185	=185
8g	-ges-
8b-}	-sen!}
8r	.
=186	=186
8r	.
8r	.
{(16ee	{Die
16ff)	|
=187	=187
8gg	Pre-
8cc#	-digt
(16cc#	hat
16dd)	|
=188	=188
8ee	g'fal-
8g	-len,
(16g	sie
16a)	|
=189	=189
8b-	blei-
8e	-ben
(16e	wie
16f#)	|
=190	=190
8g	Al-
8c#	-len!
8bn	Die
=191	=191
8a	Pre-
8d	-digt
8b-	hat
=192	=192
8a	g'fal-
8d	-len,
8b-	hat
=193	=193
8a	g'fal-
8d}	-len!}
8r	.
=194	=194
4.r	.
=195	=195
4.r	.
=196	=196
4.r	.
=197	=197
4.r	.
==	==
*-	*-
